svgs/duotone/bed-bunk.svg

<svg xmlns="http://www.w3.org/2000/svg" viewBox="0 0 576 512"><!--! Font Awesome Pro 6.4.2 by @fontawesome - https://fontawesome.com License - https://fontawesome.com/license (Commercial License) Copyright 2023 Fonticons, Inc. --><path class="fa-primary" style="fill:var(--fa-primary-color,inherit);opacity:var(--fa-primary-opacity,1);" d="M64 32C64 14.3 49.7 0 32 0S0 14.3 0 32v96 64V480c0 17.7 14.3 32 32 32s32-14.3 32-32V448H256 512v32c0 17.7 14.3 32 32 32s32-14.3 32-32V448 416 288 192 160 128H544 256 64V32zM512 288v96H256 64V192H256 512v96z"/><path class="fa-secondary" style="fill:var(--fa-secondary-color,inherit);opacity:var(--fa-secondary-opacity,.4);" d="M192 48A48 48 0 1 0 96 48a48 48 0 1 0 96 0zm0 256a48 48 0 1 0 -96 0 48 48 0 1 0 96 0zM256 0c-17.7 0-32 14.3-32 32v96H576C576 57.3 518.7 0 448 0H256zM240 256c-8.8 0-16 7.2-16 16V384H512V256H240z"/></svg>

<svg xmlns="http://www.w3.org/2000/svg" viewBox="0 0 576 512"><!--! Font Awesome Pro 6.6.0 by @fontawesome - https://fontawesome.com License - https://fontawesome.com/license (Commercial License) Copyright 2024 Fonticons, Inc. --><path class="fa-secondary" style="fill:var(--fa-secondary-color,inherit);opacity:var(--fa-secondary-opacity,.4);" d="M96 48a48 48 0 1 0 96 0A48 48 0 1 0 96 48zm0 256a48 48 0 1 0 96 0 48 48 0 1 0 -96 0zM224 32l0 96 32 0 288 0 32 0C576 57.3 518.7 0 448 0L256 0c-17.7 0-32 14.3-32 32zm0 240l0 112 32 0 256 0 0-96 0-32-272 0c-8.8 0-16 7.2-16 16z"/><path class="fa-primary" style="fill:var(--fa-primary-color,inherit);opacity:var(--fa-primary-opacity,1);" d="M64 32C64 14.3 49.7 0 32 0S0 14.3 0 32l0 96 0 64L0 480c0 17.7 14.3 32 32 32s32-14.3 32-32l0-32 192 0 256 0 0 32c0 17.7 14.3 32 32 32s32-14.3 32-32l0-32 0-32 0-128 0-96 0-32 0-32-32 0-288 0L64 128l0-96zM512 288l0 96-256 0L64 384l0-192 192 0 256 0 0 96z"/></svg>
